public/happydragons.svg

<svg fill="none" height="42" viewBox="0 0 42 42" width="42" xmlns="http://www.w3.org/2000/svg"><path d="m18.7473 40.9953c8.4664 0 15.3298-8.783 15.3298-19.6175 0-10.8344-6.8634-19.61749-15.3298-19.61749-8.4665 0-15.32985 8.78309-15.32985 19.61749 0 10.8345 6.86335 19.6175 15.32985 19.6175z" fill="#fff"/><path d="m36.1043 18.5698-.8978-.6626c-1.8773-9.19442-8.0805-17.229153-15.4264-17.311985h-.0816c-1.1427 0-2.2038.165665-3.2649.496995-.4897-.165666-1.061-.248498-1.5508-.331331-.4897-.082832-1.061-.082832-1.6324-.082832-.8978 0-1.8773.165665-3.0199.496993-.65299.2485-1.38758.497-2.04055.82832-1.30594.66266-2.53025 1.49099-3.59132 2.48497-.65297.66266-1.22432 1.40815-1.71405 2.07081-.89783 1.32532-1.46918 2.73347-1.71404 4.30726-.489729 2.7335.08162 5.6326 1.63242 8.7803l.65297 1.3253c-.08162.9111-.16324 1.8223-.16324 2.6506-.08162 11.4309 7.10101 18.1403 16.16091 18.2231h.1633c1.1427 0 2.2037-.0828 3.2648-.3313 1.1427.2485 2.367.4141 3.5097.4141 1.5508 0 3.1832-.2485 4.734-.6626 4.8157-1.491 8.407-5.4669 9.3864-10.5197.8163-4.7215-.8162-9.3601-4.4075-12.1764zm-32.48513.5799c-1.5508-3.1477-1.87728-5.7983-1.5508-8.1176.57135 2.1536 1.79567 3.5618 2.28539 4.2244.08162.0829.16324 0 .08162-.0828-1.38755-2.8991-1.30593-6.37808-.81621-8.03473.48973-.66266.97946-1.32532 1.5508-1.90514-.65297 3.31329.73459 6.70937 1.38756 7.95187 0 .0829.16324 0 .16324-.0828-1.14269-5.30127.24487-8.2004 1.87729-10.18838.65297-.33133 1.30593-.57983 1.87724-.74549-2.93832 2.89913-1.3059 7.45491-.73455 8.94587 0 .0829.16324 0 .16324 0-.81621-5.38408 2.28531-8.61454 4.81561-9.2772.8978.08283 1.7957.33133 2.5302.57983-4.3259.82832-4.081 5.05277-3.9178 6.37809 0 .08283.0817.08283.1633 0 .8162-4.72145 4.2443-5.6326 5.7135-5.46694.9794.57983 1.7956 1.24249 2.4486 1.90515-1.9589-.99399-4.734.74549-5.2238 2.89913 0 .08283.0817.08283.0817.08283 2.7751-2.98197 6.1215-1.82231 6.1215-1.82231.2449.49699.7346.74549 1.2244.91115.4897.16567.9794.497 1.1426 1.24249.4082 1.32532.1633 2.73348-.1632 3.56178-.0816.2485-.0816.5798 0 .8283.653 2.4022 4.2443 7.7034.0816 8.8631-.3265.0828-.7346.0828-1.1427.0828-2.8567 0-8.4886-1.6566-12.1615-6.0467-.0816-.0829-.1632 0-.1632.0828.4897 1.1596 2.1221 4.4729 7.0194 6.7922.1632.0829.0816.2485-.0817.2485-1.3875-.1656-3.0199-.5798-4.734-1.4081-2.4486-1.0768-4.32585-2.4021-5.71341-3.7275-.48973-.497-1.1427-.7455-1.79566-.7455-1.1427.1657-2.20377.9112-2.53026 2.0709zm20.65013 14.1643c-.653 0-1.306-.0828-1.9589-.1657-1.959-.3313-6.6114-1.7395-7.5908-8.2832-.0816-.5798-.5714-.994-1.0611-.994s-.8978.3313-1.0611.8283c-1.2243 4.1416-.5713 8.2004 1.7957 11.5137 1.3059 1.8223 3.1016 3.2305 5.1421 4.2245h-.0816c-8.8966-.0829-14.77335-6.7923-14.69173-16.7322 0-1.7394.24486-3.3961.57134-5.1356.24487-.1656.57135-.2485.81622-.2485.32648 0 .73458.0829 1.14269.497 1.5508 1.491 3.50968 2.8163 5.95828 3.8931 1.6324.7455 3.2649 1.2425 4.9789 1.491h.0816.0816c.4898 0 .9795-.3313 1.0611-.9111.0816-.4142 0-.7455-.3265-1.0768 1.7957.5798 3.3465.8283 4.5708.8283.5714 0 1.0611-.0829 1.3876-.1657 1.1427-.3313 1.9589-.9111 2.367-1.8223.8978-1.9051-.1633-4.3901-1.0611-6.4609-.3265-.6627-.5713-1.3253-.7346-1.8223 0-.0829 0-.1657 0-.2485.3265-.994.5714-2.56783.1633-4.14165-.2449-.91115-.8979-1.57381-1.7957-1.90514-.2449-.08283-.4897-.2485-.653-.49699-.3265-.57983-.7346-.99399-1.1427-1.40815-.6529-.57983-1.5508-1.40815-2.6118-2.07081-.2449-.16567-.4898-.2485-.7346-.41416h.7346.0816c3.7545 0 7.4275 2.40213 10.2842 6.79225 2.6935 4.14165 4.3259 9.36005 4.3259 14.49565-.4081 2.8991-1.3875 5.3013-3.0199 7.0408-1.7957 1.8223-4.2443 2.8991-7.0194 2.8991z" fill="#052449"/><g fill="#00b8ea"><path d="m3.61913 19.1498c-1.5508-3.1476-1.87729-5.7982-1.5508-8.1175.57135 2.1536 1.79566 3.5618 2.28539 4.2244.08162.0829.16324 0 .08162-.0828-1.38756-2.8991-1.30594-6.37809-.81621-8.03474.48973-.66266.97945-1.32532 1.5508-1.90514-.65297 3.31329.73459 6.70938 1.38756 7.95188 0 .0829.16324 0 .16324-.0828-1.1427-5.30128.24486-8.20041 1.87728-10.18839.65297-.33133 1.30594-.57983 1.87729-.74549-2.93836 2.89913-1.30594 7.45491-.73459 8.94588 0 .0828.16324 0 .16324 0-.81621-5.38409 2.28535-8.61455 4.81565-9.27721.8978.08283 1.7956.33133 2.5302.57983-4.3259.82832-4.081 5.05277-3.9178 6.37809 0 .08283.0816.08283.1632 0 .8162-4.72145 4.2443-5.6326 5.7135-5.46694.9795.57983 1.7957 1.24249 2.4486 1.90515-1.9589-.99399-4.734.74549-5.2237 2.89913 0 .08283.0816.08283.0816.08283 2.7751-2.98196 6.1216-1.82231 6.1216-1.82231.2449.49699.7346.74549 1.2243.91116.4897.16566.9795.49699 1.1427 1.24248.4081 1.32532.1632 2.73349-.1632 3.56179-.0817.2485-.0817.5798 0 .8283.6529 2.4022 4.2443 7.7034.0816 8.8631-.3265.0828-.7346.0828-1.1427.0828-2.8567 0-8.4886-1.6566-12.1615-6.0467-.0817-.0829-.1633 0-.1633.0828.4897 1.1596 2.1222 4.4729 7.0194 6.7922.1633.0829.0816.2485-.0816.2485-1.3876-.1656-3.02-.5798-4.734-1.4081-2.4487-1.0768-4.3259-2.4022-5.71345-3.7275-.48973-.497-1.1427-.7455-1.79567-.7455-1.14269.1657-2.20377.9112-2.53025 2.0708z"/><path d="m15.2096 29.2553c-.9794-1.7395-1.3059-3.479-1.4691-4.3073 0-.1657-.2449-.1657-.2449 0-.5713 1.8223-.653 3.5618-.4897 5.2184.8162.497 2.0405-.0828 2.2037-.9111z"/><path d="m20.5153 33.728c-1.0611-.3314-1.9589-.8283-2.6935-1.4082-.1633 1.491-1.306 2.5678-3.1016 2.5678.7346 1.2425 1.7956 2.3193 2.9383 3.1477 2.2038-.497 3.2649-2.5678 2.8568-4.3073z"/><path d="m29.6562 32.8999c-1.2243.6627-2.6119 1.1597-4.0811 1.3253 1.0611 2.0708.9795 4.8043-.4897 6.7094 1.8773.1657 3.7547 0 5.7136-.5798.653-.1657 1.2242-.4142 1.8772-.7455.4081-2.485-1.306-5.5497-3.02-6.7094z"/><path d="m39.6145 26.9358c-.9795-1.3254-3.1832-1.9052-4.734-1.0769-.4082 1.4082-.8979 2.5679-1.5508 3.6447 2.2037.1656 4.5707 1.6566 5.2237 4.1416.8978-2.1536 1.3059-4.473 1.0611-6.7094z"/></g><path d="m18.2297 16.8302c-1.061 0-4.2443-.3313-6.0399-3.5618-.1633-.3313-.1633-.8283 0-1.2425.3265-.6627.9794-1.5738 2.367-1.6566 2.1221-.1657 4.1627 1.2424 3.9994 6.1296 0 .1656-.1632.3313-.3265.3313z" fill="#fff"/><path d="m17.2502 11.0321c-.7346-.6627-1.6324-.994-2.7751-.9112-1.4692.1657-2.2038 1.1597-2.5303 1.8223-.2448.497-.2448.994 0 1.4082 1.8773 3.3961 5.2238 3.6446 6.2032 3.7274.3265 0 .5714-.2485.5714-.5798.1632-2.5678-.4081-4.4729-1.4692-5.4669zm.9795 5.5497c-.8979 0-4.0811-.2485-5.7951-3.4789-.1633-.3314-.1633-.6627 0-.994.3265-.6627.9794-1.4082 2.1221-1.5738h.3265.2449c-.4081.4141-.653.994-.7346 1.5738-.2449 1.7395.8978 3.3961 2.6119 3.6446.4081.0828.8162 0 1.2243-.0828v.6626c.0816.1657 0 .2485 0 .2485z" fill="#052449"/><path d="m24.0478 20.4085c.2047-.0957.2484-.4427.0975-.7752-.1508-.3324-.4391-.5243-.6438-.4286s-.2484.4427-.0975.7751c.1508.3324.4391.5244.6438.4287z" fill="#052449"/><path d="m26.1982 19.5575c.1764-.0379.2589-.3588.1842-.7169-.0747-.358-.2782-.6175-.4546-.5796s-.2589.3588-.1842.7169c.0747.358.2782.6175.4546.5796z" fill="#052449"/><path d="m16.5159 13.2685c.4508 0 .8162-.3709.8162-.8284 0-.4574-.3654-.8283-.8162-.8283s-.8162.3709-.8162.8283c0 .4575.3654.8284.8162.8284z" fill="#fff"/></svg>

<svg width="42" height="42" viewBox="0 0 42 42" fill="none" xmlns="http://www.w3.org/2000/svg">
<path d="M18.7473 40.9953C27.2137 40.9953 34.0771 32.2123 34.0771 21.3778C34.0771 10.5434 27.2137 1.76031 18.7473 1.76031C10.2808 1.76031 3.41745 10.5434 3.41745 21.3778C3.41745 32.2123 10.2808 40.9953 18.7473 40.9953Z" fill="white"/>
<path d="M36.1043 18.5698L35.2065 17.9072C33.3292 8.71278 27.126 0.678047 19.7801 0.595215H19.6985C18.5558 0.595215 17.4947 0.76088 16.4336 1.09221C15.9439 0.926544 15.3726 0.843712 14.8828 0.760879C14.3931 0.678047 13.8218 0.678047 13.2504 0.678047C12.3526 0.678047 11.3731 0.843712 10.2305 1.17504C9.57751 1.42354 8.84292 1.67204 8.18995 2.00336C6.88401 2.66602 5.6597 3.49435 4.59863 4.48833C3.94566 5.15099 3.37431 5.89648 2.88458 6.55914C1.98675 7.88446 1.4154 9.29261 1.17054 10.8664C0.680811 13.5999 1.25216 16.499 2.80296 19.6467L3.45593 20.972C3.37431 21.8831 3.29269 22.7943 3.29269 23.6226C3.21107 35.0535 10.3937 41.7629 19.4536 41.8457C19.5352 41.8457 19.5352 41.8457 19.6169 41.8457C20.7596 41.8457 21.8206 41.7629 22.8817 41.5144C24.0244 41.7629 25.2487 41.9285 26.3914 41.9285C27.9422 41.9285 29.5746 41.68 31.1254 41.2659C35.9411 39.7749 39.5324 35.799 40.5118 30.7462C41.3281 26.0247 39.6956 21.3861 36.1043 18.5698ZM3.61917 19.1497C2.06837 16.002 1.74189 13.3514 2.06837 11.0321C2.63972 13.1857 3.86404 14.5939 4.35376 15.2565C4.43538 15.3394 4.517 15.2565 4.43538 15.1737C3.04783 12.2746 3.12945 8.79562 3.61917 7.13897C4.1089 6.47631 4.59863 5.81365 5.16997 5.23383C4.517 8.54712 5.90456 11.9432 6.55753 13.1857C6.55753 13.2686 6.72077 13.1857 6.72077 13.1029C5.57808 7.80163 6.96564 4.9025 8.59806 2.91452C9.25103 2.58319 9.90399 2.33469 10.4753 2.16903C7.53698 5.06816 9.1694 9.62394 9.74075 11.1149C9.74075 11.1978 9.90399 11.1149 9.90399 11.1149C9.08778 5.73082 12.1893 2.50036 14.7196 1.8377C15.6174 1.92053 16.5153 2.16903 17.2498 2.41753C12.9239 3.24585 13.1688 7.4703 13.332 8.79562C13.332 8.87845 13.4137 8.87845 13.4953 8.79562C14.3115 4.07417 17.7396 3.16302 19.2088 3.32868C20.1882 3.90851 21.0044 4.57117 21.6574 5.23383C19.6985 4.23984 16.9234 5.97932 16.4336 8.13296C16.4336 8.21579 16.5153 8.21579 16.5153 8.21579C19.2904 5.23382 22.6368 6.39348 22.6368 6.39348C22.8817 6.89047 23.3714 7.13897 23.8612 7.30463C24.3509 7.4703 24.8406 7.80163 25.0038 8.54712C25.412 9.87244 25.1671 11.2806 24.8406 12.1089C24.759 12.3574 24.759 12.6887 24.8406 12.9372C25.4936 15.3394 29.0849 20.6406 24.9222 21.8003C24.5957 21.8831 24.1876 21.8831 23.7795 21.8831C20.9228 21.8831 15.2909 20.2265 11.618 15.8364C11.5364 15.7535 11.4548 15.8364 11.4548 15.9192C11.9445 17.0788 13.5769 20.3921 18.4742 22.7114C18.6374 22.7943 18.5558 22.9599 18.3925 22.9599C17.005 22.7943 15.3726 22.3801 13.6585 21.5518C11.2099 20.475 9.33265 19.1497 7.94509 17.8243C7.45536 17.3273 6.80239 17.0788 6.14943 17.0788C5.00673 17.2445 3.94566 17.99 3.61917 19.1497ZM24.2693 33.314C23.6163 33.314 22.9633 33.2312 22.3104 33.1483C20.3514 32.817 15.699 31.4088 14.7196 24.8651C14.638 24.2853 14.1482 23.8711 13.6585 23.8711C13.1688 23.8711 12.7607 24.2024 12.5974 24.6994C11.3731 28.841 12.0261 32.8998 14.3931 36.2131C15.699 38.0354 17.4947 39.4436 19.5352 40.4376H19.4536C10.557 40.3547 4.68025 33.6453 4.76187 23.7054C4.76187 21.966 5.00673 20.3093 5.33321 18.5698C5.57808 18.4042 5.90456 18.3213 6.14943 18.3213C6.47591 18.3213 6.88401 18.4042 7.29212 18.8183C8.84292 20.3093 10.8018 21.6346 13.2504 22.7114C14.8828 23.4569 16.5153 23.9539 18.2293 24.2024H18.3109H18.3925C18.8823 24.2024 19.372 23.8711 19.4536 23.2913C19.5352 22.8771 19.4536 22.5458 19.1271 22.2145C20.9228 22.7943 22.4736 23.0428 23.6979 23.0428C24.2693 23.0428 24.759 22.9599 25.0855 22.8771C26.2282 22.5458 27.0444 21.966 27.4525 21.0548C28.3503 19.1497 27.2892 16.6647 26.3914 14.5939C26.0649 13.9312 25.8201 13.2686 25.6568 12.7716C25.6568 12.6887 25.6568 12.6059 25.6568 12.5231C25.9833 11.5291 26.2282 9.95527 25.8201 8.38145C25.5752 7.4703 24.9222 6.80764 24.0244 6.47631C23.7795 6.39348 23.5347 6.22781 23.3714 5.97932C23.0449 5.39949 22.6368 4.98533 22.2287 4.57117C21.5758 3.99134 20.6779 3.16302 19.6169 2.50036C19.372 2.33469 19.1271 2.25186 18.8823 2.0862C19.1271 2.0862 19.372 2.0862 19.6169 2.0862H19.6985C23.453 2.0862 27.126 4.48833 29.9827 8.87845C32.6762 13.0201 34.3086 18.2385 34.3086 23.3741C33.9005 26.2732 32.9211 28.6754 31.2887 30.4149C29.493 32.2372 27.0444 33.314 24.2693 33.314Z" fill="#052449"/>
<path d="M3.61913 19.1498C2.06833 16.0022 1.74184 13.3516 2.06833 11.0323C2.63968 13.1859 3.86399 14.5941 4.35372 15.2567C4.43534 15.3396 4.51696 15.2567 4.43534 15.1739C3.04778 12.2748 3.1294 8.79581 3.61913 7.13916C4.10886 6.4765 4.59858 5.81384 5.16993 5.23402C4.51696 8.54731 5.90452 11.9434 6.55749 13.1859C6.55749 13.2688 6.72073 13.1859 6.72073 13.1031C5.57803 7.80182 6.96559 4.90269 8.59801 2.91471C9.25098 2.58338 9.90395 2.33488 10.4753 2.16922C7.53694 5.06835 9.16936 9.62413 9.74071 11.1151C9.74071 11.1979 9.90395 11.1151 9.90395 11.1151C9.08774 5.73101 12.1893 2.50055 14.7196 1.83789C15.6174 1.92072 16.5152 2.16922 17.2498 2.41772C12.9239 3.24604 13.1688 7.47049 13.332 8.79581C13.332 8.87864 13.4136 8.87864 13.4952 8.79581C14.3114 4.07436 17.7395 3.16321 19.2087 3.32887C20.1882 3.9087 21.0044 4.57136 21.6573 5.23402C19.6984 4.24003 16.9233 5.97951 16.4336 8.13315C16.4336 8.21598 16.5152 8.21598 16.5152 8.21598C19.2903 5.23402 22.6368 6.39367 22.6368 6.39367C22.8817 6.89066 23.3714 7.13916 23.8611 7.30483C24.3508 7.47049 24.8406 7.80182 25.0038 8.54731C25.4119 9.87263 25.167 11.2808 24.8406 12.1091C24.7589 12.3576 24.7589 12.6889 24.8406 12.9374C25.4935 15.3396 29.0849 20.6408 24.9222 21.8005C24.5957 21.8833 24.1876 21.8833 23.7795 21.8833C20.9228 21.8833 15.2909 20.2267 11.618 15.8366C11.5363 15.7537 11.4547 15.8366 11.4547 15.9194C11.9444 17.079 13.5769 20.3923 18.4741 22.7116C18.6374 22.7945 18.5557 22.9601 18.3925 22.9601C17.0049 22.7945 15.3725 22.3803 13.6585 21.552C11.2098 20.4752 9.3326 19.1498 7.94505 17.8245C7.45532 17.3275 6.80235 17.079 6.14938 17.079C5.00669 17.2447 3.94561 17.9902 3.61913 19.1498Z" fill="#00B8EA"/>
<path d="M15.2096 29.2553C14.2302 27.5158 13.9037 25.7763 13.7405 24.948C13.7405 24.7823 13.4956 24.7823 13.4956 24.948C12.9243 26.7703 12.8426 28.5098 13.0059 30.1664C13.8221 30.6634 15.0464 30.0836 15.2096 29.2553Z" fill="#00B8EA"/>
<path d="M20.5153 33.728C19.4542 33.3966 18.5564 32.8997 17.8218 32.3198C17.6585 33.8108 16.5158 34.8876 14.7202 34.8876C15.4548 36.1301 16.5158 37.2069 17.6585 38.0353C19.8623 37.5383 20.9234 35.4675 20.5153 33.728Z" fill="#00B8EA"/>
<path d="M29.6562 32.8999C28.4319 33.5626 27.0443 34.0596 25.5751 34.2252C26.6362 36.296 26.5546 39.0295 25.0854 40.9346C26.9627 41.1003 28.8401 40.9346 30.799 40.3548C31.452 40.1891 32.0232 39.9406 32.6762 39.6093C33.0843 37.1243 31.3702 34.0596 29.6562 32.8999Z" fill="#00B8EA"/>
<path d="M39.6145 26.9358C38.635 25.6104 36.4313 25.0306 34.8805 25.8589C34.4723 27.2671 33.9826 28.4268 33.3297 29.5036C35.5334 29.6692 37.9004 31.1602 38.5534 33.6452C39.4512 31.4916 39.8593 29.1722 39.6145 26.9358Z" fill="#00B8EA"/>
<path d="M18.2297 16.8302C17.1687 16.8302 13.9854 16.4989 12.1898 13.2684C12.0265 12.9371 12.0265 12.4401 12.1898 12.0259C12.5163 11.3632 13.1692 10.4521 14.5568 10.3693C16.6789 10.2036 18.7195 11.6117 18.5562 16.4989C18.5562 16.6645 18.393 16.8302 18.2297 16.8302Z" fill="white"/>
<path d="M17.2502 11.0321C16.5156 10.3694 15.6178 10.0381 14.4751 10.1209C13.0059 10.2866 12.2713 11.2806 11.9448 11.9432C11.7 12.4402 11.7 12.9372 11.9448 13.3514C13.8221 16.7475 17.1686 16.996 18.148 17.0788C18.4745 17.0788 18.7194 16.8303 18.7194 16.499C18.8826 13.9312 18.3113 12.0261 17.2502 11.0321ZM18.2297 16.5818C17.3318 16.5818 14.1486 16.3333 12.4346 13.1029C12.2713 12.7715 12.2713 12.4402 12.4346 12.1089C12.7611 11.4462 13.414 10.7007 14.5567 10.5351C14.6383 10.5351 14.8016 10.5351 14.8832 10.5351C14.9648 10.5351 15.0464 10.5351 15.1281 10.5351C14.72 10.9492 14.4751 11.5291 14.3935 12.1089C14.1486 13.8484 15.2913 15.505 17.0054 15.7535C17.4135 15.8363 17.8216 15.7535 18.2297 15.6707C18.2297 15.9192 18.2297 16.0848 18.2297 16.3333C18.3113 16.499 18.2297 16.5818 18.2297 16.5818Z" fill="#052449"/>
<path d="M24.0478 20.4085C24.2525 20.3128 24.2962 19.9658 24.1453 19.6333C23.9945 19.3009 23.7062 19.109 23.5015 19.2047C23.2968 19.3004 23.2531 19.6474 23.404 19.9798C23.5548 20.3122 23.8431 20.5042 24.0478 20.4085Z" fill="#052449"/>
<path d="M26.1982 19.5575C26.3746 19.5196 26.4571 19.1987 26.3824 18.8406C26.3077 18.4826 26.1042 18.2231 25.9278 18.261C25.7514 18.2989 25.6689 18.6198 25.7436 18.9779C25.8183 19.3359 26.0218 19.5954 26.1982 19.5575Z" fill="#052449"/>
<path d="M16.5159 13.2685C16.9667 13.2685 17.3321 12.8976 17.3321 12.4401C17.3321 11.9827 16.9667 11.6118 16.5159 11.6118C16.0651 11.6118 15.6997 11.9827 15.6997 12.4401C15.6997 12.8976 16.0651 13.2685 16.5159 13.2685Z" fill="white"/>
</svg>
